X: 100021
M: 2/4
L: 1/16
K: D
(uag) |\
f2a2e2a2 | f2a2d'2 (d'c') | b2(ba) g2(gf) | e2e2e2 (ag) |\
f2a2e2a2 | f2a2d'2 (d'c') | bagf egec | d2f2d2 ||
((3uagf) |\
e2(ef) g2g2 | f2a2d2d'2 | c'2c'a e'2e'c' | d'2d'2a2 (gf) |\
e2(ef) g2g2 | f2a2d'2 (d'c') | bagf egec | d2f2d2 ||
uF2 |\
g2(ba) gfed | cAce a2e2 | f2(ag) fedc | dAdf a2a2 |\


